dist/img/icons/main/pin.svg

<svg width="20" height="19" viewBox="0 0 20 19" fill="none" xmlns="http://www.w3.org/2000/svg">
<g clip-path="url(#clip0_1255_9885)">
<path d="M15.0857 5.3441C15.0857 2.41606 12.7532 0.0380549 9.86181 0.000797083C6.94232 -0.0368318 4.50062 2.39517 4.5 5.34295C4.49941 8.09402 6.55804 10.3594 9.20476 10.6549V17.9211L9.58893 18.8625C9.66395 19.0463 9.92176 19.0463 9.99674 18.8625L10.381 17.9211V10.6549C13.0273 10.3594 15.0857 8.09465 15.0857 5.3441ZM9.79286 9.50035C7.51774 9.50035 5.67619 7.64147 5.67619 5.3441C5.67619 3.04711 7.51737 1.18785 9.79286 1.18785C12.068 1.18785 13.9095 3.04673 13.9095 5.3441C13.9095 7.6411 12.0683 9.50035 9.79286 9.50035ZM10.0869 2.9691C10.0869 3.29704 9.82362 3.56285 9.49881 3.56285C8.68812 3.56285 8.02857 4.22874 8.02857 5.04723C8.02857 5.37516 7.76529 5.64098 7.44048 5.64098C7.11566 5.64098 6.85238 5.37516 6.85238 5.04723C6.85238 3.57395 8.03956 2.37535 9.49881 2.37535C9.82362 2.37535 10.0869 2.64117 10.0869 2.9691Z" fill="#161C25"/>
</g>
<defs>
<clipPath id="clip0_1255_9885">
<rect width="19" height="19" fill="white" transform="translate(0.5)"/>
</clipPath>
</defs>
</svg>

<svg width="20" height="19" fill="none" xmlns="http://www.w3.org/2000/svg"><g clip-path="url(#clip0_1255_9885)"><path d="M15.086 5.344c0-2.928-2.333-5.306-5.224-5.343C6.942-.037 4.5 2.395 4.5 5.343c0 2.751 2.058 5.016 4.705 5.312v7.266l.384.942a.22.22 0 00.408 0l.384-.942v-7.266c2.646-.296 4.705-2.56 4.705-5.31zM9.793 9.5c-2.275 0-4.117-1.859-4.117-4.156 0-2.297 1.841-4.156 4.117-4.156 2.275 0 4.117 1.859 4.117 4.156 0 2.297-1.842 4.156-4.117 4.156zm.294-6.53a.59.59 0 01-.588.593c-.81 0-1.47.666-1.47 1.484a.59.59 0 01-.589.594.59.59 0 01-.588-.594c0-1.473 1.188-2.672 2.647-2.672a.59.59 0 01.588.594z" fill="#161C25"/></g><defs><clipPath id="clip0_1255_9885"><path fill="#fff" transform="translate(.5)" d="M0 0h19v19H0z"/></clipPath></defs></svg>
